source/asset/images/icons/icon-phone.svg

<svg width="24" height="24" viewBox="0 0 24 24" fill="none" xmlns="http://www.w3.org/2000/svg">
<path d="M8.66375 6H6.1579C6.1579 6 5.80262 8.74333 6.1579 10.4408C6.59925 12.5495 7.10164 13.8516 8.62501 15.375C10.1484 16.8984 11.4505 17.4007 13.5592 17.8421C15.2567 18.1974 18 17.8421 18 17.8421V15.3363C18 14.4754 17.4491 13.7111 16.6325 13.4389L15.5094 13.0645C15.2293 12.9712 14.9209 13.069 14.7459 13.3069C14.1043 14.1787 12.8226 14.2379 12.1034 13.4288L10.6653 11.8109C10.0139 11.0782 10.0561 9.96226 10.7609 9.28078C10.9633 9.08506 11.0355 8.79056 10.9464 8.52344L10.5611 7.36754C10.2889 6.55086 9.52461 6 8.66375 6Z" stroke="#D0BC7A" stroke-width="1.5"/>
</svg>

<svg width="24" height="24" viewBox="0 0 24 24" fill="none" xmlns="http://www.w3.org/2000/svg"><path d="M8.664 6H6.158s-.355 2.743 0 4.44c.441 2.11.944 3.412 2.467 4.935 1.523 1.523 2.825 2.026 4.934 2.467 1.698.355 4.441 0 4.441 0v-2.506a2 2 0 00-1.367-1.897l-1.124-.374a.68.68 0 00-.763.242 1.702 1.702 0 01-2.643.122l-1.438-1.618a1.829 1.829 0 01.096-2.53.732.732 0 00.185-.758l-.385-1.155A2 2 0 008.664 6z" stroke="#D0BC7A" stroke-width="1.5"/></svg>
